X: 8047
T: Connie The Soldier
R: jig
M: 6/8
K: Dmajor
EAA ABd|cAG EED|EFG EFG|EAF GED|
EAA ABd|cAG E2 d|cBc ABG|1 FDD DDD:|2 FDD D2 e||
fdd dcd|fed dde|fed eed|cAA A3|
fga efg|fed fed|cBc ABG|FDD D2z:|

